; generated by PrusaSlicer 2.7.2+win64 on 2024-03-15 at 15:09:09 UTC

; 

; external perimeters extrusion width = 3.00mm
; perimeters extrusion width = 3.00mm
; infill extrusion width = 3.00mm
; solid infill extrusion width = 3.00mm
; top infill extrusion width = 3.00mm
; first layer extrusion width = 3.00mm

;TYPE:Custom
G28 ; home all axes
G1 Z5 F5000 ; lift nozzle
G21 ; set units to millimeters
G90 ; use absolute coordinates
M82 ; use absolute distances for extrusion
G92 E0
; Filament gcode
M107
;LAYER_CHANGE
;Z:1
;HEIGHT:1
G1 E-.1 F900
G1 Z2 F4200
G1 X66.679 Y65.749
G1 Z1
G1 E.5 F900
M204 S200
;TYPE:Skirt/Brim
;WIDTH:3
G1 F3000
G1 X68.518 Y64.052 E1.19024
G1 X70.049 Y62.767 E1.74158
G1 X72.022 Y61.262 E2.42607
G1 X73.827 Y60.02 E3.03044
G1 X75.967 Y58.699 E3.72414
G1 X77.703 Y57.736 E4.27174
G1 X79.927 Y56.636 E4.95614
G1 X82.224 Y55.644 E5.6463
G1 X84.284 Y54.874 E6.25292
G1 X86.667 Y54.113 E6.94294
G1 X89.079 Y53.48 E7.63079
G1 X91.014 Y53.068 E8.1765
G1 X93.483 Y52.662 E8.86669
G1 X95.668 Y52.412 E9.47333
G1 X98.177 Y52.25 E10.16685
G1 X100.658 Y52.22 E10.85125
G1 X102.656 Y52.289 E11.4027
G1 X105.129 Y52.491 E12.08712
G1 X107.314 Y52.778 E12.695
G1 X109.763 Y53.223 E13.38159
G1 X112.197 Y53.798 E14.07146
G1 X114.119 Y54.349 E14.62297
G1 X116.489 Y55.15 E15.31303
G1 X118.795 Y56.066 E15.99746
G1 X120.801 Y56.98 E16.60552
G1 X123.012 Y58.121 E17.29182
G1 X125.184 Y59.39 E17.9857
G1 X127.264 Y60.756 E18.67211
G1 X128.865 Y61.918 E19.21778
G1 X130.818 Y63.481 E19.90777
G1 X132.687 Y65.144 E20.59784
G1 X135.615 Y68.141 E21.75357
G1 X137.233 Y70.049 E22.44363
G1 X138.738 Y72.022 E23.12812
G1 X140.149 Y74.087 E23.818
G1 X141.298 Y75.962 E24.42458
G1 X142.503 Y78.161 E25.11625
G1 X143.373 Y79.946 E25.66399
G1 X144.363 Y82.243 E26.35393
G1 X145.225 Y84.57 E27.03843
G1 X146.403 Y88.59 E28.19392
G1 X146.936 Y91.035 E28.88418
G1 X147.338 Y93.483 E29.56847
G1 X147.616 Y95.99 E30.26423
G1 X147.75 Y98.177 E30.86862
G1 X147.78 Y100.679 E31.55881
G1 X147.68 Y103.165 E32.2451
G1 X147.507 Y105.149 E32.79444
G1 X147.172 Y107.629 E33.48473
G1 X146.328 Y111.711 E34.63451
G1 X145.651 Y114.119 E35.32448
G1 X144.85 Y116.489 E36.01454
G1 X143.925 Y118.814 E36.70475
G1 X142.881 Y121.087 E37.3947
G1 X140.88 Y124.744 E38.54457
G1 X139.529 Y126.849 E39.23451
G1 X138.069 Y128.882 E39.92491
G1 X136.519 Y130.818 E40.609
G1 X135.053 Y132.476 E41.21947
G1 X133.315 Y134.257 E41.90589
G1 X131.859 Y135.615 E42.45508
G1 X129.951 Y137.233 E43.14514
G1 X128.213 Y138.567 E43.74948
G1 X126.156 Y139.991 E44.43957
G1 X124.478 Y141.039 E44.98528
G1 X122.297 Y142.264 E45.67528
G1 X120.054 Y143.373 E46.36548
G1 X117.757 Y144.363 E47.05542
G1 X115.43 Y145.225 E47.73992
G1 X113.32 Y145.891 E48.35024
G1 X110.9 Y146.525 E49.04029
G1 X108.965 Y146.936 E49.58594
G1 X106.497 Y147.341 E50.27581
G1 X104.01 Y147.616 E50.966
G1 X101.823 Y147.75 E51.57039
G1 X99.321 Y147.78 E52.26058
G1 X96.835 Y147.68 E52.94687
G1 X94.851 Y147.507 E53.49621
G1 X92.372 Y147.172 E54.18623
G1 X90.217 Y146.773 E54.79076
G1 X87.79 Y146.199 E55.47869
G1 X85.881 Y145.651 E56.02653
G1 X83.511 Y144.85 E56.71659
G1 X81.205 Y143.934 E57.40102
G1 X79.199 Y143.02 E58.00908
G1 X76.976 Y141.872 E58.6992
G1 X74.816 Y140.61 E59.38925
G1 X73.151 Y139.529 E59.93683
G1 X71.118 Y138.069 E60.62723
G1 X69.182 Y136.519 E61.31132
G1 X67.534 Y135.062 E61.91808
G1 X65.749 Y133.321 E62.60587
G1 X64.385 Y131.859 E63.1574
G1 X62.767 Y129.951 E63.84746
G1 X61.25 Y127.962 E64.53746
G1 X60.009 Y126.156 E65.1419
G1 X58.699 Y124.033 E65.83001
G1 X57.736 Y122.297 E66.37761
G1 X56.627 Y120.054 E67.06781
G1 X55.637 Y117.757 E67.75775
G1 X54.775 Y115.43 E68.44225
G1 X54.109 Y113.32 E69.05257
G1 X53.478 Y110.913 E69.73895
G1 X52.972 Y108.471 E70.42685
G1 X52.659 Y106.497 E70.97816
G1 X52.385 Y104.031 E71.66256
G1 X52.25 Y101.823 E72.27275
G1 X52.22 Y99.334 E72.95936
G1 X52.32 Y96.835 E73.64923
G1 X52.552 Y94.338 E74.34096
G1 X52.911 Y91.876 E75.02725
G1 X53.803 Y87.782 E76.18302
G1 X54.502 Y85.394 E76.86936
G1 X55.326 Y83.04 E77.55731
G1 X56.067 Y81.205 E78.10318
G1 X57.11 Y78.932 E78.79301
G1 X58.128 Y76.976 E79.40125
G1 X59.39 Y74.816 E80.0913
G1 X60.756 Y72.736 E80.77771
G1 X61.918 Y71.135 E81.32338
G1 X63.481 Y69.182 E82.01337
G1 X64.938 Y67.534 E82.62013
G1 X66.365 Y66.071 E83.18386
G1 E83.08386 F900
G92 E0
G1 X66.365 Y66.071 Z2 F4200
G1 X71.553 Y98.404
G1 Z1
G1 E.6 F900
;TYPE:External perimeter
;WIDTH:3
G1 F3000
G1 X71.57 Y98.012 E.70823
G1 X71.712 Y96.533 E1.11807
G1 X71.85 Y95.548 E1.39242
G1 X72.123 Y94.075 E1.80565
G1 X72.472 Y92.624 E2.2173
G1 X72.893 Y91.199 E2.62716
G1 X73.217 Y90.259 E2.90142
G1 X73.766 Y88.864 E3.31494
G1 X74.385 Y87.507 E3.72635
G1 X75.074 Y86.183 E4.13805
G1 X75.831 Y84.897 E4.54967
G1 X76.651 Y83.658 E4.9595
G1 X77.235 Y82.854 E5.2336
G1 X78.168 Y81.681 E5.64703
G1 X79.157 Y80.563 E6.05876
G1 X80.203 Y79.499 E6.47032
G1 X81.303 Y78.491 E6.88187
G1 X82.449 Y77.546 E7.29159
G1 X83.243 Y76.947 E7.56594
G1 X84.478 Y76.098 E7.97933
G1 X85.75 Y75.319 E8.39076
G1 X87.056 Y74.61 E8.80067
G1 X87.95 Y74.173 E9.07515
G1 X89.324 Y73.576 E9.48838
G1 X90.716 Y73.055 E9.89836
G1 X91.661 Y72.747 E10.17252
G1 X93.105 Y72.347 E10.58583
G1 X94.562 Y72.024 E10.99748
G1 X96.034 Y71.778 E11.40914
G1 X97.516 Y71.609 E11.82058
G1 X99.005 Y71.518 E12.23207
G1 X100.491 Y71.505 E12.64198
G1 X101.485 Y71.539 E12.91632
G1 X102.979 Y71.657 E13.3297
G1 X104.458 Y71.851 E13.74116
G1 X105.932 Y72.124 E14.15466
G1 X106.888 Y72.345 E14.42531
G1 X108.332 Y72.746 E14.83869
G1 X109.747 Y73.219 E15.25023
G1 X111.136 Y73.766 E15.66201
G1 X112.493 Y74.385 E16.07342
G1 X113.817 Y75.074 E16.48512
G1 X115.103 Y75.831 E16.89674
G1 X116.342 Y76.651 E17.30657
G1 X117.146 Y77.235 E17.58067
G1 X118.319 Y78.168 E17.9941
G1 X119.437 Y79.157 E18.40583
G1 X120.505 Y80.207 E18.81895
G1 X121.175 Y80.925 E19.08984
G1 X122.148 Y82.065 E19.50326
G1 X123.057 Y83.248 E19.91478
G1 X123.902 Y84.478 E20.32641
G1 X124.681 Y85.75 E20.73784
G1 X125.393 Y87.062 E21.14959
G1 X126.036 Y88.408 E21.56106
G1 X126.609 Y89.793 E21.9745
G1 X126.945 Y90.715 E22.24518
G1 X127.395 Y92.144 E22.65843
G1 X127.769 Y93.589 E23.07015
G1 X128.067 Y95.051 E23.48172
G1 X128.287 Y96.527 E23.89335
G1 X128.43 Y98.006 E24.30322
G1 X128.482 Y98.999 E24.5775
G1 X128.486 Y99.499 E24.71542
G1 X128.495 Y100.497 E24.99072
G1 X128.43 Y101.988 E25.40238
G1 X128.286 Y103.48 E25.81584
G1 X128.15 Y104.452 E26.08657
G1 X127.876 Y105.932 E26.50175
G1 X127.655 Y106.888 E26.7724
G1 X127.254 Y108.332 E27.18578
G1 X126.781 Y109.747 E27.59732
G1 X126.234 Y111.136 E28.0091
G1 X125.615 Y112.493 E28.42051
G1 X124.926 Y113.817 E28.83221
G1 X124.169 Y115.102 E29.24359
G1 X123.342 Y116.352 E29.65702
G1 X122.765 Y117.146 E29.92776
G1 X121.832 Y118.319 E30.34119
G1 X120.843 Y119.437 E30.75292
G1 X119.797 Y120.501 E31.16448
G1 X118.697 Y121.509 E31.57603
G1 X117.546 Y122.458 E31.98752
G1 X116.341 Y123.349 E32.4009
G1 X115.527 Y123.898 E32.67173
G1 X114.255 Y124.678 E33.08331
G1 X113.385 Y125.161 E33.35779
G1 X112.044 Y125.829 E33.77104
G1 X110.67 Y126.427 E34.18438
G1 X109.754 Y126.779 E34.45506
G1 X108.332 Y127.254 E34.86861
G1 X106.895 Y127.653 E35.27998
G1 X105.438 Y127.976 E35.69163
G1 X103.966 Y128.222 E36.10329
G1 X102.484 Y128.391 E36.51473
G1 X100.995 Y128.482 E36.92622
G1 X99.502 Y128.495 E37.33806
G1 X98.018 Y128.431 E37.74778
G1 X97.027 Y128.344 E38.02219
G1 X95.542 Y128.149 E38.43532
G1 X94.075 Y127.877 E38.84687
G1 X92.624 Y127.528 E39.25852
G1 X91.193 Y127.105 E39.67013
G1 X89.787 Y126.607 E40.08157
G1 X88.414 Y126.038 E40.49153
G1 X87.512 Y125.618 E40.76599
G1 X86.183 Y124.926 E41.1793
G1 X84.898 Y124.169 E41.59068
G1 X83.653 Y123.345 E42.0025
G1 X82.454 Y122.458 E42.41389
G1 X81.307 Y121.513 E42.82382
G1 X80.568 Y120.848 E43.09805
G1 X79.495 Y119.793 E43.51312
G1 X78.825 Y119.075 E43.78401
G1 X77.852 Y117.935 E44.19743
G1 X76.943 Y116.752 E44.60895
G1 X76.095 Y115.517 E45.02218
G1 X75.574 Y114.684 E45.29319
G1 X74.836 Y113.38 E45.70649
G1 X74.171 Y112.044 E46.11814
G1 X73.576 Y110.676 E46.52963
G1 X73.055 Y109.284 E46.93961
G1 X72.747 Y108.338 E47.21403
G1 X72.347 Y106.895 E47.62707
G1 X72.024 Y105.438 E48.03872
G1 X71.778 Y103.966 E48.45038
G1 X71.609 Y102.484 E48.86182
G1 X71.518 Y100.995 E49.27331
G1 X71.505 Y99.503 E49.68487
G1 X71.533 Y98.853 E49.86433
;LAYER_CHANGE
;Z:2
;HEIGHT:1
G1 Z2 F4200
G1 E49.76433 F900
G1 Z3 F4200
G1 X109.364 Y73.091
G1 Z2
G1 E50.36433 F900
G1 F2515
G1 X109.747 Y73.219 E50.47572
G1 X111.136 Y73.766 E50.8875
G1 X112.493 Y74.385 E51.29891
G1 X113.817 Y75.074 E51.71061
G1 X115.102 Y75.831 E52.12199
G1 X116.347 Y76.655 E52.53381
G1 X117.546 Y77.542 E52.9452
G1 X118.673 Y78.471 E53.34807
G1 X119.432 Y79.153 E53.62953
G1 X120.506 Y80.207 E54.04461
G1 X121.175 Y80.925 E54.31531
G1 X122.148 Y82.065 E54.72873
G1 X123.057 Y83.248 E55.14025
G1 X123.902 Y84.478 E55.55188
G1 X124.681 Y85.75 E55.96331
G1 X125.396 Y87.067 E56.37667
G1 X125.827 Y87.95 E56.6477
G1 X126.424 Y89.324 E57.06093
G1 X126.936 Y90.692 E57.46384
G1 X127.253 Y91.662 E57.74533
G1 X127.653 Y93.105 E58.15837
G1 X127.976 Y94.562 E58.57002
G1 X128.222 Y96.034 E58.98168
G1 X128.391 Y97.516 E59.39312
G1 X128.482 Y99.005 E59.80461
G1 X128.489 Y99.751 E60.01039
G1 X128.495 Y100.497 E60.21617
G1 X128.43 Y101.988 E60.62783
G1 X128.287 Y103.473 E61.03934
G1 X128.066 Y104.949 E61.45101
G1 X127.776 Y106.38 E61.85376
G1 X127.53 Y107.371 E62.13541
G1 X127.105 Y108.807 E62.5485
G1 X126.607 Y110.213 E62.95994
G1 X126.036 Y111.592 E63.37164
G1 X125.393 Y112.939 E63.78335
G1 X124.697 Y114.222 E64.18597
G1 X124.172 Y115.098 E64.46768
G1 X123.342 Y116.352 E64.88248
G1 X122.765 Y117.146 E65.15322
G1 X121.832 Y118.319 E65.56665
G1 X120.843 Y119.437 E65.97838
G1 X119.797 Y120.501 E66.38994
G1 X118.697 Y121.509 E66.80149
G1 X117.541 Y122.462 E67.21474
G1 X116.757 Y123.053 E67.48556
G1 X115.522 Y123.902 E67.89895
G1 X114.244 Y124.685 E68.31237
G1 X113.386 Y125.161 E68.58302
G1 X112.044 Y125.829 E68.99652
G1 X110.67 Y126.427 E69.40986
G1 X109.754 Y126.779 E69.68054
G1 X108.332 Y127.254 E70.09409
G1 X106.895 Y127.653 E70.50546
G1 X105.438 Y127.976 E70.91711
G1 X103.966 Y128.222 E71.32877
G1 X102.484 Y128.391 E71.74021
G1 X100.995 Y128.482 E72.1517
G1 X99.502 Y128.495 E72.56354
G1 X98.044 Y128.432 E72.96609
G1 X97.027 Y128.344 E73.24766
G1 X95.542 Y128.149 E73.66079
G1 X94.075 Y127.877 E74.07234
G1 X92.624 Y127.528 E74.48399
G1 X91.193 Y127.105 E74.8956
G1 X89.786 Y126.606 E75.30739
G1 X88.437 Y126.048 E75.71007
G1 X87.512 Y125.618 E75.99144
G1 X86.183 Y124.926 E76.40475
G1 X84.898 Y124.169 E76.81613
G1 X83.653 Y123.345 E77.22795
G1 X82.454 Y122.458 E77.63934
G1 X81.327 Y121.529 E78.04221
G1 X80.568 Y120.847 E78.32367
G1 X79.499 Y119.797 E78.73699
G1 X78.491 Y118.697 E79.14854
G1 X77.562 Y117.571 E79.5512
G1 X76.947 Y116.756 E79.83283
G1 X76.098 Y115.522 E80.24599
G1 X75.319 Y114.25 E80.65742
G1 X74.607 Y112.939 E81.06893
G1 X73.964 Y111.592 E81.48064
G1 X73.405 Y110.243 E81.88343
G1 X73.055 Y109.284 E82.16502
G1 X72.605 Y107.856 E82.57801
G1 X72.231 Y106.411 E82.98973
G1 X71.933 Y104.949 E83.4013
G1 X71.717 Y103.505 E83.80404
G1 X71.609 Y102.49 E84.0856
G1 X71.518 Y100.995 E84.49874
G1 X71.505 Y99.503 E84.9103
G1 X71.57 Y98.012 E85.32196
G1 X71.709 Y96.558 E85.72486
G1 X71.85 Y95.547 E86.00643
G1 X72.123 Y94.074 E86.41966
G1 X72.464 Y92.654 E86.82248
G1 X72.744 Y91.673 E87.10388
G1 X73.219 Y90.253 E87.5169
G1 X73.766 Y88.864 E87.92868
G1 X74.385 Y87.507 E88.34009
G1 X75.074 Y86.183 E88.75179
G1 X75.831 Y84.897 E89.16341
G1 X76.637 Y83.679 E89.56628
G1 X77.236 Y82.853 E89.84773
G1 X78.168 Y81.681 E90.26077
G1 X79.157 Y80.563 E90.6725
G1 X80.203 Y79.499 E91.08406
G1 X81.279 Y78.512 E91.48681
G1 X82.06 Y77.855 E91.76833
G1 X83.248 Y76.943 E92.18145
G1 X84.478 Y76.098 E92.59308
G1 X85.723 Y75.335 E92.99586
G1 X86.615 Y74.839 E93.27739
G1 X87.956 Y74.171 E93.69064
G1 X89.324 Y73.576 E94.10213
G1 X90.692 Y73.064 E94.50504
G1 X91.662 Y72.747 E94.78653
G1 X93.105 Y72.347 E95.19957
G1 X94.562 Y72.024 E95.61122
G1 X96.034 Y71.778 E96.02288
G1 X97.516 Y71.609 E96.43432
G1 X99.006 Y71.518 E96.84608
G1 X100.466 Y71.504 E97.24882
G1 X101.486 Y71.539 E97.53034
G1 X102.979 Y71.657 E97.94345
G1 X104.458 Y71.851 E98.35491
G1 X105.932 Y72.124 E98.76841
G1 X106.888 Y72.345 E99.03906
G1 X108.332 Y72.746 E99.45244
G1 X108.937 Y72.948 E99.62838
;LAYER_CHANGE
;Z:3
;HEIGHT:1
G1 Z3 F4200
G1 E99.52838 F900
G1 Z4 F4200
G1 X98.152 Y128.436
G1 Z3
G1 E100.12838 F900
G1 F2609
G1 X98.012 Y128.43 E100.16703
G1 X96.52 Y128.286 E100.58049
G1 X95.548 Y128.15 E100.85122
G1 X94.075 Y127.877 E101.26445
G1 X92.624 Y127.528 E101.6761
G1 X91.193 Y127.105 E102.08771
G1 X89.786 Y126.606 E102.4995
G1 X88.461 Y126.058 E102.89501
G1 X87.511 Y125.618 E103.1838
G1 X86.183 Y124.926 E103.59686
G1 X84.898 Y124.169 E104.00824
G1 X83.653 Y123.345 E104.42006
G1 X82.454 Y122.458 E104.83145
G1 X81.346 Y121.546 E105.22729
G1 X80.567 Y120.847 E105.51599
G1 X79.495 Y119.793 E105.93067
G1 X78.825 Y119.075 E106.20156
G1 X77.852 Y117.935 E106.61498
G1 X76.943 Y116.752 E107.0265
G1 X76.098 Y115.522 E107.43813
G1 X75.318 Y114.249 E107.84994
G1 X74.633 Y112.989 E108.24554
G1 X74.173 Y112.049 E108.53421
G1 X73.576 Y110.676 E108.94719
G1 X73.072 Y109.332 E109.34312
G1 X72.747 Y108.338 E109.63159
G1 X72.347 Y106.895 E110.04463
G1 X72.024 Y105.438 E110.45628
G1 X71.778 Y103.966 E110.86794
G1 X71.609 Y102.484 E111.27938
G1 X71.518 Y100.995 E111.69087
G1 X71.505 Y99.503 E112.10243
G1 X71.57 Y98.011 E112.51437
G1 X71.706 Y96.584 E112.90977
G1 X71.85 Y95.547 E113.19856
G1 X72.123 Y94.074 E113.61179
G1 X72.457 Y92.679 E114.00746
G1 X72.744 Y91.673 E114.29602
G1 X73.219 Y90.253 E114.70904
G1 X73.766 Y88.864 E115.12082
G1 X74.385 Y87.507 E115.53223
G1 X75.074 Y86.183 E115.94393
G1 X75.831 Y84.897 E116.35555
G1 X76.622 Y83.7 E116.75131
G1 X77.236 Y82.853 E117.03987
G1 X78.168 Y81.681 E117.45291
G1 X79.157 Y80.563 E117.86464
G1 X80.203 Y79.499 E118.2762
G1 X81.303 Y78.491 E118.68775
G1 X82.409 Y77.578 E119.08334
G1 X83.244 Y76.947 E119.37203
G1 X84.478 Y76.098 E119.78519
G1 X85.751 Y75.318 E120.197
G1 X87.011 Y74.633 E120.5926
G1 X87.951 Y74.173 E120.88127
G1 X89.324 Y73.576 E121.29425
G1 X90.668 Y73.072 E121.69018
G1 X91.662 Y72.747 E121.97865
G1 X93.105 Y72.347 E122.39169
G1 X94.562 Y72.024 E122.80334
G1 X96.034 Y71.778 E123.215
G1 X97.516 Y71.609 E123.62644
G1 X99.005 Y71.518 E124.03793
G1 X100.497 Y71.505 E124.44949
G1 X101.988 Y71.57 E124.86115
G1 X103.48 Y71.714 E125.27461
G1 X104.452 Y71.85 E125.54534
G1 X105.932 Y72.124 E125.96052
G1 X106.888 Y72.345 E126.23117
G1 X108.332 Y72.746 E126.64455
G1 X109.747 Y73.219 E127.05609
G1 X111.136 Y73.766 E127.46787
G1 X112.493 Y74.385 E127.87928
G1 X113.817 Y75.074 E128.29098
G1 X115.103 Y75.831 E128.7026
G1 X116.3 Y76.622 E129.09836
G1 X117.147 Y77.236 E129.38692
G1 X118.319 Y78.168 E129.79996
G1 X119.437 Y79.157 E130.21169
G1 X120.505 Y80.207 E130.62481
G1 X121.175 Y80.925 E130.8957
G1 X122.148 Y82.065 E131.30912
G1 X123.057 Y83.248 E131.72064
G1 X123.902 Y84.478 E132.13227
G1 X124.681 Y85.75 E132.5437
G1 X125.396 Y87.067 E132.95706
G1 X125.827 Y87.95 E133.22809
G1 X126.424 Y89.324 E133.64132
G1 X126.928 Y90.668 E134.03725
G1 X127.253 Y91.662 E134.32572
G1 X127.653 Y93.105 E134.73876
G1 X127.976 Y94.562 E135.15041
G1 X128.222 Y96.034 E135.56207
G1 X128.391 Y97.516 E135.97351
G1 X128.482 Y99.005 E136.385
G1 X128.489 Y99.751 E136.59078
G1 X128.495 Y100.497 E136.79656
G1 X128.43 Y101.988 E137.20822
G1 X128.287 Y103.473 E137.61973
G1 X128.066 Y104.949 E138.0314
G1 X127.782 Y106.355 E138.42706
G1 X127.53 Y107.371 E138.7158
G1 X127.105 Y108.807 E139.12889
G1 X126.607 Y110.213 E139.54033
G1 X126.036 Y111.592 E139.95203
G1 X125.393 Y112.938 E140.3635
G1 X124.681 Y114.25 E140.77525
G1 X123.898 Y115.528 E141.18867
G1 X123.346 Y116.347 E141.4611
G1 X122.765 Y117.146 E141.7336
G1 X121.832 Y118.319 E142.14703
G1 X120.843 Y119.437 E142.55876
G1 X119.797 Y120.501 E142.97032
G1 X118.697 Y121.509 E143.38187
G1 X117.546 Y122.458 E143.79336
G1 X116.393 Y123.312 E144.18914
G1 X115.527 Y123.899 E144.47772
G1 X114.244 Y124.685 E144.89275
